modules/hawcons-filled/icons/icon-19-cloud-moon-snowflakes.svg

<?xml version="1.0" encoding="UTF-8" standalone="no"?>
<svg width="32px" height="32px" viewBox="0 0 32 32" version="1.1" xmlns="http://www.w3.org/2000/svg" xmlns:xlink="http://www.w3.org/1999/xlink" xmlns:sketch="http://www.bohemiancoding.com/sketch/ns">
    <!-- Generator: Sketch 3.0.3 (7891) - http://www.bohemiancoding.com/sketch -->
    <title>icon 19 cloud moon snowflakes</title>
    <desc>Created with Sketch.</desc>
    <defs></defs>
    <g id="Page-1" stroke="none" stroke-width="1" fill="none" fill-rule="evenodd" sketch:type="MSPage">
        <g id="icon-19-cloud-moon-snowflakes" sketch:type="MSArtboardGroup" fill="#929292">
            <path d="M25.2749382,10.4946037 C26.0264591,9.7851122 26.5780984,8.86615275 26.8364888,7.83109247 C26.9242079,7.4797073 26.9781305,7.11494167 26.9946037,6.74044857 C26.5269611,6.9050627 26.0239372,6.99460366 25.5,6.99460366 C23.0147185,6.99460366 21,4.97988516 21,2.49460366 C21,1.97066642 21.089541,1.46764261 21.2541551,1 C20.879662,1.01647312 20.5148964,1.07039573 20.1635112,1.15811484 C17.7718077,1.75517509 16,3.91797533 16,6.49460366 C16,6.92191619 16.0487309,7.337847 16.1409385,7.73714197 C15.1963581,7.26207976 14.1294153,6.99460366 13,6.99460366 C9.13400656,6.99460366 6,10.1286102 6,13.9946037 C6,14.1327545 6.00400207,14.2699707 6.01189661,14.4061425 C4.23965876,15.1762121 3,16.9437347 3,18.9946037 C3,21.7560274 5.23249418,23.9946037 7.99943992,23.9946037 L25.0005601,23.9946037 C27.7616745,23.9946037 30,21.7504085 30,18.9946037 C30,16.9429423 28.7676457,15.1798968 26.9993494,14.4091332 C26.9758595,12.8672373 26.3178749,11.4792133 25.2749382,10.4946037 L25.2749382,10.4946037 Z M24.4770358,9.86917711 C25.046841,9.36611221 25.4882557,8.72097729 25.7458449,7.98920732 C25.6643448,7.99279233 25.5823839,7.99460366 25.5,7.99460366 C22.4624337,7.99460366 20,5.53216993 20,2.49460366 C20,2.41221974 20.0018113,2.33025889 20.0053963,2.24875875 C18.2547894,2.86498709 17,4.5332594 17,6.49460366 C17,7.29410506 17.2084979,8.04490915 17.5740867,8.69560895 C17.959598,9.02867845 18.3083804,9.40310764 18.6135384,9.81200101 C19.4525719,9.29370067 20.441357,8.99460366 21.5,8.99460366 C22.5969862,8.99460366 23.6189624,9.31575913 24.4770358,9.86917711 L24.4770358,9.86917711 Z M11,26.6339746 L11,25.4976988 C11,25.2228273 10.7680664,25 10.5,25 C10.2238576,25 10,25.2148438 10,25.4976988 L10,26.6339746 L10,26.6339746 L9.01595628,26.0658367 C8.77791062,25.928401 8.46896969,26.0178477 8.33493649,26.25 C8.1968653,26.4891463 8.27099664,26.7904346 8.51595628,26.9318621 L9.5,27.5 L8.51595628,28.0681379 C8.27791062,28.2055736 8.20090329,28.5178477 8.33493649,28.75 C8.47300768,28.9891463 8.77099664,29.0755908 9.01595628,28.9341633 L10,28.3660254 L10,29.5023012 C10,29.7771727 10.2319336,30 10.5,30 C10.7761424,30 11,29.7851562 11,29.5023012 L11,28.3660254 L11.9840437,28.9341633 C12.2220894,29.071599 12.5310303,28.9821523 12.6650635,28.75 C12.8031347,28.5108537 12.7290034,28.2095654 12.4840437,28.0681379 L11.5,27.5 L12.4840437,26.9318621 C12.7220894,26.7944264 12.7990967,26.4821523 12.6650635,26.25 C12.5269923,26.0108537 12.2290034,25.9244092 11.9840437,26.0658367 L11,26.6339746 L11,26.6339746 L11,26.6339746 Z M23,26.6339746 L23,25.4976988 C23,25.2228273 22.7680664,25 22.5,25 C22.2238576,25 22,25.2148438 22,25.4976988 L22,26.6339746 L22,26.6339746 L21.0159563,26.0658367 C20.7779106,25.928401 20.4689697,26.0178477 20.3349365,26.25 C20.1968653,26.4891463 20.2709966,26.7904346 20.5159563,26.9318621 L21.5,27.5 L20.5159563,28.0681379 C20.2779106,28.2055736 20.2009033,28.5178477 20.3349365,28.75 C20.4730077,28.9891463 20.7709966,29.0755908 21.0159563,28.9341633 L22,28.3660254 L22,29.5023012 C22,29.7771727 22.2319336,30 22.5,30 C22.7761424,30 23,29.7851562 23,29.5023012 L23,28.3660254 L23.9840437,28.9341633 C24.2220894,29.071599 24.5310303,28.9821523 24.6650635,28.75 C24.8031347,28.5108537 24.7290034,28.2095654 24.4840437,28.0681379 L23.5,27.5 L24.4840437,26.9318621 C24.7220894,26.7944264 24.7990967,26.4821523 24.6650635,26.25 C24.5269923,26.0108537 24.2290034,25.9244092 23.9840437,26.0658367 L23,26.6339746 L23,26.6339746 L23,26.6339746 Z M17,27.6339746 L17,26.4976988 C17,26.2228273 16.7680664,26 16.5,26 C16.2238576,26 16,26.2148438 16,26.4976988 L16,27.6339746 L16,27.6339746 L15.0159563,27.0658367 C14.7779106,26.928401 14.4689697,27.0178477 14.3349365,27.25 C14.1968653,27.4891463 14.2709966,27.7904346 14.5159563,27.9318621 L15.5,28.5 L14.5159563,29.0681379 C14.2779106,29.2055736 14.2009033,29.5178477 14.3349365,29.75 C14.4730077,29.9891463 14.7709966,30.0755908 15.0159563,29.9341633 L16,29.3660254 L16,30.5023012 C16,30.7771727 16.2319336,31 16.5,31 C16.7761424,31 17,30.7851562 17,30.5023012 L17,29.3660254 L17.9840437,29.9341633 C18.2220894,30.071599 18.5310303,29.9821523 18.6650635,29.75 C18.8031347,29.5108537 18.7290034,29.2095654 18.4840437,29.0681379 L17.5,28.5 L18.4840437,27.9318621 C18.7220894,27.7944264 18.7990967,27.4821523 18.6650635,27.25 C18.5269923,27.0108537 18.2290034,26.9244092 17.9840437,27.0658367 L17,27.6339746 L17,27.6339746 L17,27.6339746 Z" id="cloud-moon-snowflakes" sketch:type="MSShapeGroup"></path>
        </g>
    </g>
</svg>

<svg width="32" height="32" xmlns="http://www.w3.org/2000/svg"><path d="M25.275 10.495a5.495 5.495 0 0 0 1.72-3.755A4.5 4.5 0 0 1 21.255 1a5.502 5.502 0 0 0-5.113 6.737 7 7 0 0 0-10.129 6.669 5.006 5.006 0 0 0-3.013 4.589c0 2.761 2.232 5 5 5h17c2.762 0 5-2.245 5-5a4.998 4.998 0 0 0-3-4.586 5.484 5.484 0 0 0-1.725-3.914zm-.798-.626a4.506 4.506 0 0 0 1.269-1.88 5.5 5.5 0 0 1-5.74-5.74 4.502 4.502 0 0 0-2.432 6.447c.386.333.734.707 1.04 1.116a5.474 5.474 0 0 1 2.886-.817c1.097 0 2.119.32 2.977.874zM11 26.634v-1.136a.504.504 0 0 0-.5-.498c-.276 0-.5.215-.5.498v1.136l-.984-.568a.504.504 0 0 0-.681.184.494.494 0 0 0 .181.682l.984.568-.984.568a.504.504 0 0 0-.181.682c.138.24.436.326.681.184l.984-.568v1.136c0 .275.232.498.5.498.276 0 .5-.215.5-.498v-1.136l.984.568a.504.504 0 0 0 .681-.184.494.494 0 0 0-.181-.682L11.5 27.5l.984-.568a.504.504 0 0 0 .181-.682.494.494 0 0 0-.681-.184l-.984.568zm12 0v-1.136a.504.504 0 0 0-.5-.498c-.276 0-.5.215-.5.498v1.136l-.984-.568a.504.504 0 0 0-.681.184.494.494 0 0 0 .181.682l.984.568-.984.568a.504.504 0 0 0-.181.682c.138.24.436.326.681.184l.984-.568v1.136c0 .275.232.498.5.498.276 0 .5-.215.5-.498v-1.136l.984.568a.504.504 0 0 0 .681-.184.494.494 0 0 0-.181-.682L23.5 27.5l.984-.568a.504.504 0 0 0 .181-.682.494.494 0 0 0-.681-.184l-.984.568zm-6 1v-1.136a.504.504 0 0 0-.5-.498c-.276 0-.5.215-.5.498v1.136l-.984-.568a.504.504 0 0 0-.681.184.494.494 0 0 0 .181.682l.984.568-.984.568a.504.504 0 0 0-.181.682c.138.24.436.326.681.184l.984-.568v1.136c0 .275.232.498.5.498.276 0 .5-.215.5-.498v-1.136l.984.568a.504.504 0 0 0 .681-.184.494.494 0 0 0-.181-.682L17.5 28.5l.984-.568a.504.504 0 0 0 .181-.682.494.494 0 0 0-.681-.184l-.984.568z" fill="#929292" fill-rule="evenodd"/></svg>
